Sources/FrostedUI/Resources/Icons.xcassets/shareScreen20.imageset/share-screen-20.svg

<svg width="20" height="20" viewBox="0 0 20 20" fill="none" xmlns="http://www.w3.org/2000/svg" data-fui-icon="true">
  <path
    d="M14.0625 2.0625C16.5478 2.0625 18.5625 4.07722 18.5625 6.5625V13.4375C18.5625 15.9228 16.5478 17.9375 14.0625 17.9375H5.9375C3.45222 17.9375 1.4375 15.9228 1.4375 13.4375V6.5625C1.4375 4.07722 3.45222 2.0625 5.9375 2.0625H14.0625ZM5.9375 3.5625C4.28065 3.5625 2.9375 4.90565 2.9375 6.5625V13.4375C2.9375 15.0944 4.28065 16.4375 5.9375 16.4375H14.0625C15.7194 16.4375 17.0625 15.0944 17.0625 13.4375V6.5625C17.0625 4.90565 15.7194 3.5625 14.0625 3.5625H5.9375ZM9.1748 6.32715C9.60195 5.9 10.2781 5.8733 10.7363 6.24707L10.8252 6.32715L13.3428 8.84473C13.6355 9.13759 13.6355 9.61241 13.3428 9.90527C13.0499 10.198 12.5751 10.198 12.2822 9.90527L10.75 8.37305V13.125C10.7499 13.5391 10.4141 13.875 10 13.875C9.58587 13.875 9.25013 13.5391 9.25 13.125V8.37305L7.71777 9.90527C7.42491 10.198 6.95009 10.198 6.65723 9.90527C6.36451 9.61241 6.3645 9.13758 6.65723 8.84473L9.1748 6.32715Z"
    fill="currentColor"
  />
</svg>

<svg xmlns="http://www.w3.org/2000/svg" width="20" height="20" fill="none" data-fui-icon="true" viewBox="0 0 20 20"><path fill="currentColor" d="M14.063 2.063a4.5 4.5 0 0 1 4.5 4.5v6.875a4.5 4.5 0 0 1-4.5 4.5H5.937a4.5 4.5 0 0 1-4.5-4.5V6.562a4.5 4.5 0 0 1 4.5-4.5zm-8.126 1.5a3 3 0 0 0-3 3v6.875a3 3 0 0 0 3 3h8.125a3 3 0 0 0 3-3V6.562a3 3 0 0 0-3-3zm3.238 2.764a1.167 1.167 0 0 1 1.561-.08l.09.08 2.517 2.518a.75.75 0 0 1-1.06 1.06L10.75 8.373v4.752a.75.75 0 0 1-1.5 0V8.373L7.718 9.905a.75.75 0 0 1-1.06-1.06z"/></svg>
